!!!SOCIAL_FUNCTION:	songs used in the treatment of the sick
!!!PDT:	1929
!!!OTL: No_87_There_I_Will_See_the_Dawn.krn
!!!REG: Southwest
!!!LANG: Non-Tone
!!!LING_GROUP: Uto-Aztecan
**kern
*staff1
*clefF4
*k[b-e-]
*M3/4
8.F\L
16F\Jk
=1
8.d\L
16d\Jk
12d\L
12B-\
12B-\J
12c\L
12B-\
12B-\J
=2||
*M3/8
[4B-\
16B-\LL]
16G\JJ
=3||
*M2/4
8B-\L
8B-\J
8.F\L
16F\Jk
=4
=
*M3/4
8.B-\L
16G\Jk
8.F\L
16F\Jk
12G\L
12F\
12F\J
=5||
*M3/8
4F\
8F\
=6||
*M2/4
8F\L
8D\J
8D\L
16F\L
16F\JJ
=7||
*M3/4
8.F\L
16D\Jk
8.F\L
16F\Jk
8.F\L
16F\Jk
=8
4F\
16F\LL
16F\
16G\
16G\JJ
8.F\L
16D\Jk
=9||
*M2/4
8.F\L
16F\Jk
8F\L
16F\L
16F\JJ
=10||
*M3/4
2F\
12G\L
12F\
12F\J
==:|!
*-
